X:3222
T:Keel Row, The
O:england
R:reel
M:C|
K:G
BG~G2 cA~A2|BG~G2 AGED|BG~G2 cA~A2|BGAF G2GA:|
Bd~d2 eBdB|BAGB AGED|Bd~d2 e2dc|BGAF G2GA|
Bd~d2 eBdB|BAGB AGED|BG~G2 cA~A2|BGAF G2GA||
